src/lib/packages/icons/src/assets/filled/test-tube-alt.svg

<svg width="24" height="24" viewBox="0 0 24 24" fill="none" xmlns="http://www.w3.org/2000/svg">
<path d="M21.5301 9.46999L14.5311 2.46999C14.2381 2.17699 13.763 2.17699 13.47 2.46999C13.177 2.76299 13.177 3.23803 13.47 3.53103L13.94 4.001L3.50409 14.4361C1.83409 16.1071 1.83409 18.8261 3.50409 20.4961C4.31409 21.3061 5.39012 21.751 6.53412 21.751C7.68012 21.751 8.75602 21.3051 9.56402 20.4961L19.9991 10.063L20.4681 10.532C20.6141 10.678 20.8061 10.752 20.9981 10.752C21.1891 10.752 21.382 10.679 21.528 10.532C21.823 10.238 21.8231 9.76299 21.5301 9.46999ZM14.94 13H7.06109L15.001 5.06106L18.94 9.001L14.94 13Z" fill="currentColor"/>
</svg>

<svg xmlns="http://www.w3.org/2000/svg" width="24" height="24" fill="none"><path fill="currentColor" d="m21.53 9.47-6.999-7a.75.75 0 0 0-1.061 1.061l.47.47L3.504 14.436a4.291 4.291 0 0 0 0 6.06 4.256 4.256 0 0 0 3.03 1.255 4.253 4.253 0 0 0 3.03-1.255l10.435-10.433.47.469a.748.748 0 0 0 1.059 0 .75.75 0 0 0 .002-1.062ZM14.94 13H7.061l7.94-7.939 3.939 3.94-4 3.999Z"/></svg>
